!!!!SEGMENT: pl-kk--kk-i-6--060_anonim--deo-gratias-alleluia.krn
!!!cenid: 16xx:1056
!!!COM: Anonim
!!!COM-rismid: pe30004985
!!!CDT:
!!!CNT:
!!!OTL: Deo gratias alleluia
!!!PDT:
!!!AGN:
!!!SMS-siglum: PL-Kk
!!!SMS-shelfmark: Kk.I.6
!!!SMS-shelfwork: 060 W
!!!SMS-variant:
!!!SMS-altvar:
!!!NIFC-rismid: 1001136575
!!!URL-scan: http://repozytorium.nifc.pl/skany/pl-kk-nut--i-6
!!!ONB-nifc: UWAGA: C (skan 0087, s. 171), T (skan 0199, s. 202), B (skan 0312, s. 206) Paschale
!!!key:
**kern	**text	**kern	**text	**kern	**text
*group1	*	*group1	*	*group1	*
*part3	*part3	*part2	*part2	*part1	*part1
*staff3	*staff3	*staff2	*staff2	*staff1	*staff1
*Iempty	*	*Itenor	*	*Ivox	*
*I"Baſsus.	*	*I"Tenor.	*	*I"Cantus.	*
*I'[B]	*	*I'[T]	*	*I'[S]	*
*clefF4	*	*clefC4	*	*clefC4	*
*k[]	*	*k[]	*	*k[]	*
*C:	*	*C:	*	*C:	*
*M2/2	*	*M2/2	*	*M2/2	*
*met(C|)	*	*met(C|)	*	*met(C|)	*
=1-	=1-	=1-	=1-	=1-	=1-
!LO:TX:t=P:problem=4/middle&colon; global	!	!	!	!	!
!LO:TX:t=P:problem=4\middle&colon; global	!	!LO:TX:t=P:problem=4\middle&colon; global	!	!	!
!LO:TX:t=P:problem=2\middle&colon; global	!	!LO:TX:t=P:problem=4/middle&colon; global	!	!	!
2.G\	De-	4d\	De-	1G	De-
.	.	4c\	.	.	.
.	.	4B\	-o	.	.
4F\	.	4A/	.	.	.
=2-	=2-	=2-	=2-	=2-	=2-
4E\	.	2.G/	.	1G,>	-o
4D/	.	.	.	.	.
1C/	.	.	.	.	.
.	.	4F/	.	.	.
=3-	=3-	=3-	=3-	=3-	=3-
.	.	2E/	.	1G	gra-
2BB/	-o	2D/	.	.	.
=4-	=4-	=4-	=4-	=4-	=4-
2.E\	gra-	4E/	gra-	1G	-ti-
.	.	4F/	.	.	.
.	.	1G/	.	.	.
4D/	.	.	.	.	.
=5-	=5-	=5-	=5-	=5-	=5-
2C/	-ti-	.	.	1A,>	-as
!	!	!LO:TX:b:t=P:problem=# below	!	!	!
2D/	.	2F#X/	-ti-	.	.
!LO:SIC:v:t=custos GG	!	!LO:SIC:v:t=custos G	!	!	!
!LO:LB:g=original	!	!LO:LB:g=original	!	!	!
=6-	=6-	=6-	=6-	=6-	=6-
2GG/	-as	2G/	-as	1G	Al-
!	!	!LO:TX:t=P:problem=2\middle&colon; global	!	!	!
2C/	Al-	2c\	Al-	.	.
=7-	=7-	=7-	=7-	=7-	=7-
2.D/	-le-	2.A/	-le-	1F	-le-
4D/	-lu-	4B\	.	.	.
=8-	=8-	=8-	=8-	=8-	=8-
2C/	-ia	2c\	.	1G	-lu-
2E\	.	2B\	-lu-	.	.
=9-	=9-	=9-	=9-	=9-	=9-
2.D/	.	1d	-ia	1A,>	-ia
4E\	.	.	.	.	.
=10-	=10-	=10-	=10-	=10-	=10-
4F\	.	1D	.	1A	Al-
2G\	.	.	.	.	.
4F\	.	.	.	.	.
=11-	=11-	=11-	=11-	=11-	=11-
2G\	.	1E	.	1G	-le-
2GG/	.	.	.	.	.
!	!	!	!	!LO:SIC:v:t=custos c	!
!	!	!	!	!LO:LB:g=original	!
=12-	=12-	=12-	=12-	=12-	=12-
*	*	*	*	*lig	*
4AA/	.	2.E/	.	1c	.
4BB/	.	.	.	.	.
4C/	.	.	.	.	.
4D/	.	4Fny/	.	.	.
=13-	=13-	=13-	=13-	=13-	=13-
4E\	.	4G/	.	1B	.
4F\	.	4A/	.	.	.
2G\	.	2B\	.	.	.
!LO:SIC:v:t=custos F	!	!	!	!	!
*	*	*	*	*Xlig	*
!LO:LB:g=original	!	!	!	!	!
=14-	=14-	=14-	=14-	=14-	=14-
*	*	*	*	*lig	*
2F\	.	2c\	.	1A	.
2D/	.	2d\	.	.	.
!	!	!LO:SIC:v:t=custos B	!	!	!
=15-	=15-	=15-	=15-	=15-	=15-
2E\	.	2B\	.	1G	.
2C/	.	2c\	.	.	.
*	*	*	*	*Xlig	*
=16-	=16-	=16-	=16-	=16-	=16-
2D/	.	1A	.	1F	.
2F\	.	.	.	.	.
=17-	=17-	=17-	=17-	=17-	=17-
2C/	.	2G/	.	1A	.
2D/	.	2F/	.	.	.
=18-	=18-	=18-	=18-	=18-	=18-
2GG/	.	1G	.	1G	lu-
1C/	.	.	.	.	.
=19-	=19-	=19-	=19-	=19-	=19-
.	.	2c\	.	[0Gl;;	-ia
2BB/	.	2d\	.	.	.
=20-	=20-	=20-	=20-	=20-	=20-
2.C/	.	2c\	.	.	.
.	.	2.G/	.	.	.
4D/	.	.	.	.	.
!LO:SIC:v:t=custos E	!	!	!	!	!
!LO:LB:g=original	!	!	!	!	!
=21-	=21-	=21-	=21-	=21-	=21-
4E\	.	.	.	0G_	.
4F\	.	4A/	.	.	.
2G\	.	2B\	.	.	.
=22-	=22-	=22-	=22-	=22-	=22-
1C	.	1c	.	.	.
=23-	=23-	=23-	=23-	=23-	=23-
0GG;;	.	0B;;	.	0G]	.
=-	=-	=-	=-	=-	=-
*-	*-	*-	*-	*-	*-
!!!system-decoration: [(g1)]
!!!AIN: 1 empty 1 tenor 1 vox
!!!ENC: Filip Voros
!!!END: 2021-10-25
!!!EED: Jędrzej Mróz
!!!ESR: 2021-10-27
!!!RDF**kern: > = above
!!!RDF**kern: < = below
!!!RDF**kern: l = terminal long
